icon/pk/adobe-indesign.svg

<svg viewBox="0 0 48 48" fill="none" xmlns="http://www.w3.org/2000/svg" height="1em" width="1em">
  <path d="M39 6H9C7.34315 6 6 7.34315 6 9V39C6 40.6569 7.34315 42 9 42H39C40.6569 42 42 40.6569 42 39V9C42 7.34315 40.6569 6 39 6Z" fill="#2F88FF" stroke="black" stroke-width="4"/>
  <path d="M16 15L16 33" stroke="white" stroke-width="4" stroke-linecap="round" stroke-linejoin="round"/>
  <path d="M32 17L32 33" stroke="white" stroke-width="4" stroke-linecap="round" stroke-linejoin="round"/>
  <path fill-rule="evenodd" clip-rule="evenodd" d="M28 33C25.5 33 24 31.4 24 29C24 26.6 25.5 25 28 25C30.5 25 32 25 32 25V33H28Z" stroke="white" stroke-width="4" stroke-linecap="round" stroke-linejoin="round"/>
</svg>

<svg width="48" height="48" fill="none" xmlns="http://www.w3.org/2000/svg"><path d="M39 6H9a3 3 0 0 0-3 3v30a3 3 0 0 0 3 3h30a3 3 0 0 0 3-3V9a3 3 0 0 0-3-3Z" fill="#2F88FF" stroke="#000" stroke-width="4"/><path d="M16 15v18M32 17v16" stroke="#fff" stroke-width="4" stroke-linecap="round" stroke-linejoin="round"/><path clip-rule="evenodd" d="M28 33c-2.5 0-4-1.6-4-4s1.5-4 4-4h4v8h-4Z" stroke="#fff" stroke-width="4" stroke-linecap="round" stroke-linejoin="round"/></svg>
